X: 693
T: Zhenzhu daojuanlian
%%abc-version 2.0
%%abcx-abcm2ps-target-version 5.9.1 (29 Sep 2008)
%%abc-creator hum2abc beta
%%abcx-conversion-date 2013/10/02 07:52:30
%%abc-edited-by Helmut Schaffrath
%%humdrum-veritas 233918617
%%humdrum-veritas-data 1122454966
%%continueall 1
%%barnumbers 0
L: 1/8
M: 2/4
K: Eb
f f g e [I:setbarnb 1]| 
f4 | 
g f e f | 
e cB2 | 
e e/ e/ f e | 
c e B A | 
F4 | 
B B A B | 
c AB2 | 
e e f e | 
c e B G | 
F4 |]  



